src/assets/icons/coin-stacks.svg

<?xml version="1.0" encoding="UTF-8"?>
<svg width="32px" height="32px" viewBox="0 0 32 32" version="1.1" xmlns="http://www.w3.org/2000/svg" xmlns:xlink="http://www.w3.org/1999/xlink">
    <!-- Generator: Sketch 61.2 (89653) - https://sketch.com -->
    <title>Atoms/Ikoner/Tjenester/Coin-stacks</title>
    <desc>Created with Sketch.</desc>
    <g id="Atoms/Ikoner/Tjenester/Coin-stacks" stroke="none" stroke-width="1" fill="none" fill-rule="evenodd">
        <g id="Skatt-og-nearing">
            <path d="M7.5,12.5 C11.706,12.5 15,14.477 15,17 L15,17 L15,27.5 C15,30.023 11.706,32 7.5,32 C3.294,32 0,30.023 0,27.5 L0,27.5 L0,17 C0,14.477 3.294,12.5 7.5,12.5 Z M13,27.082 C11.64,27.957 9.697,28.5 7.5,28.5 C5.303,28.5 3.36,27.957 2,27.082 L2,27.082 L2,27.5 C2,28.68 4.352,30 7.5,30 C10.648,30 13,28.68 13,27.5 L13,27.5 Z M13,23.582 C11.64,24.457 9.697,25 7.5,25 C5.303,25 3.36,24.457 2,23.582 L2,23.582 L2,24 C2,25.18 4.352,26.5 7.5,26.5 C10.648,26.5 13,25.18 13,24 L13,24 Z M24.5,0 C28.706,0 32,1.977 32,4.5 L32,4.5 L32,22 C32,24.523 28.706,26.5 24.5,26.5 C20.294,26.5 17,24.523 17,22 L17,22 L17,4.5 C17,1.977 20.294,0 24.5,0 Z M30,21.582 C28.64,22.457 26.698,23 24.5,23 C22.302,23 20.36,22.457 19,21.582 L19,21.582 L19,22 C19,23.18 21.353,24.5 24.5,24.5 C27.647,24.5 30,23.18 30,22 L30,22 Z M13,20.082 C11.64,20.957 9.697,21.5 7.5,21.5 C5.303,21.5 3.36,20.957 2,20.082 L2,20.082 L2,20.5 C2,21.68 4.352,23 7.5,23 C10.648,23 13,21.68 13,20.5 L13,20.5 Z M30,18.082 C28.64,18.957 26.698,19.5 24.5,19.5 C22.302,19.5 20.36,18.957 19,18.082 L19,18.082 L19,18.5 C19,19.68 21.353,21 24.5,21 C27.647,21 30,19.68 30,18.5 L30,18.5 Z M7.5,14.5 C4.352,14.5 2,15.82 2,17 C2,18.18 4.352,19.5 7.5,19.5 C10.648,19.5 13,18.18 13,17 C13,15.82 10.648,14.5 7.5,14.5 Z M30,14.582 C28.64,15.457 26.698,16 24.5,16 C22.302,16 20.36,15.457 19,14.582 L19,14.582 L19,15 C19,16.18 21.353,17.5 24.5,17.5 C27.647,17.5 30,16.18 30,15 L30,15 Z M30,11.082 C28.64,11.957 26.698,12.5 24.5,12.5 C22.302,12.5 20.36,11.957 19,11.082 L19,11.082 L19,11.5 C19,12.68 21.353,14 24.5,14 C27.647,14 30,12.68 30,11.5 L30,11.5 Z M30,7.582 C28.64,8.457 26.698,9 24.5,9 C22.302,9 20.36,8.457 19,7.582 L19,7.582 L19,8 C19,9.18 21.353,10.5 24.5,10.5 C27.647,10.5 30,9.18 30,8 L30,8 Z M24.5,2 C21.353,2 19,3.32 19,4.5 C19,5.68 21.353,7 24.5,7 C27.647,7 30,5.68 30,4.5 C30,3.32 27.647,2 24.5,2 Z" id="Combined-Shape" fill="#2A2859"></path>
        </g>
    </g>
</svg>

<svg xmlns="http://www.w3.org/2000/svg" width="32" height="32" viewBox="0 0 32 32"><defs><style>.cls-1{fill-rule:evenodd;}</style></defs><g id="coin-stacks"><path id="Combined-Shape" class="cls-1" d="M7.5,12.5c4.21,0,7.5,2,7.5,4.5h0V27.5C15,30,11.71,32,7.5,32S0,30,0,27.5H0V17C0,14.48,3.29,12.5,7.5,12.5ZM13,27.08A10.27,10.27,0,0,1,7.5,28.5,10.27,10.27,0,0,1,2,27.08H2v.42C2,28.68,4.35,30,7.5,30S13,28.68,13,27.5h0Zm0-3.5A10.27,10.27,0,0,1,7.5,25,10.27,10.27,0,0,1,2,23.58H2V24c0,1.18,2.35,2.5,5.5,2.5S13,25.18,13,24h0ZM24.5,0C28.71,0,32,2,32,4.5h0V22c0,2.52-3.29,4.5-7.5,4.5S17,24.52,17,22h0V4.5C17,2,20.29,0,24.5,0ZM30,21.58A10.27,10.27,0,0,1,24.5,23,10.27,10.27,0,0,1,19,21.58h0V22c0,1.18,2.35,2.5,5.5,2.5S30,23.18,30,22h0Zm-17-1.5A10.27,10.27,0,0,1,7.5,21.5,10.27,10.27,0,0,1,2,20.08H2v.42C2,21.68,4.35,23,7.5,23S13,21.68,13,20.5h0Zm17-2a10.27,10.27,0,0,1-5.5,1.42A10.27,10.27,0,0,1,19,18.08h0v.42c0,1.18,2.35,2.5,5.5,2.5S30,19.68,30,18.5h0ZM7.5,14.5C4.35,14.5,2,15.82,2,17s2.35,2.5,5.5,2.5S13,18.18,13,17,10.65,14.5,7.5,14.5Zm22.5.08A10.27,10.27,0,0,1,24.5,16,10.27,10.27,0,0,1,19,14.58h0V15c0,1.18,2.35,2.5,5.5,2.5S30,16.18,30,15h0Zm0-3.5a10.27,10.27,0,0,1-5.5,1.42A10.27,10.27,0,0,1,19,11.08h0v.42c0,1.18,2.35,2.5,5.5,2.5S30,12.68,30,11.5h0Zm0-3.5A10.27,10.27,0,0,1,24.5,9,10.27,10.27,0,0,1,19,7.58h0V8c0,1.18,2.35,2.5,5.5,2.5S30,9.18,30,8h0ZM24.5,2C21.35,2,19,3.32,19,4.5S21.35,7,24.5,7,30,5.68,30,4.5,27.65,2,24.5,2Z"/></g></svg>
